icon/lg/basecamp.svg

<?xml version="1.0" encoding="UTF-8"?>
<svg viewBox="0 0 512 113" version="1.1" xmlns="http://www.w3.org/2000/svg" preserveAspectRatio="xMidYMid" height="1em" width="1em">
  <g>
    <path d="M150.211459,31.0530776 L171.697591,31.0530776 C183.599222,31.0530776 189.778241,35.9330977 189.778241,45.0963009 L189.778241,45.5527057 C190.12874,51.1021589 186.366918,56.0731382 180.93101,57.2436891 C187.486507,57.8206853 192.356016,63.567018 191.849616,70.1283465 L191.849616,70.444319 C191.849616,80.4501157 185.284409,85.7163244 172.680616,85.7163244 L150.211459,85.7163244 L150.211459,31.0530776 Z M169.696431,53.4871269 C175.664801,53.4871269 178.017041,51.3455353 178.017041,46.4655152 L178.017041,46.1495427 C178.017041,41.5854951 175.419045,39.5141197 169.626215,39.5141197 L162.288631,39.5141197 L162.288631,53.557343 L169.696431,53.4871269 Z M170.749673,77.1148501 C176.858475,77.1148501 179.632012,74.3413135 179.632012,69.3910773 L179.632012,69.0751048 C179.632012,64.0195444 176.858475,61.4566561 170.152836,61.4566561 L162.288631,61.4566561 L162.288631,77.1499582 L170.749673,77.1148501 Z M195.079557,74.5870699 C195.079557,65.2483264 203.610816,61.7375206 215.863528,61.7375206 L220.357359,61.7375206 L220.357359,60.1576579 C220.357359,55.4180701 218.917929,52.8200738 213.862369,52.8200738 C212.208357,52.6236899 210.546681,53.1192164 209.270384,54.1894446 C207.994087,55.2596727 207.216527,56.8095475 207.121621,58.4724711 L196.589204,58.4724711 C197.291365,48.9932954 204.769382,44.7803284 214.56453,44.7803284 C224.359678,44.7803284 231.275966,48.747539 231.275966,59.595929 L231.275966,85.6461083 L220.497792,85.6461083 L220.497792,80.8363043 C217.746249,84.7132441 213.160249,86.8595985 208.42062,86.4887017 C201.18836,86.4887017 195.079557,82.9778959 195.079557,74.5870699 L195.079557,74.5870699 Z M220.357359,71.6731011 L220.357359,68.1622952 L216.074176,68.1622952 C209.649402,68.1622952 205.927947,69.5666176 205.927947,73.8146926 C205.927947,76.7286615 207.68335,78.6244966 211.720777,78.6244966 C216.600797,78.7649289 220.357359,76.0967164 220.357359,71.6731011 Z M235.945337,73.1125315 L246.267106,73.1125315 C246.723511,76.6233373 248.478914,78.7649289 253.288718,78.7649289 C257.571901,78.7649289 259.573061,77.1850662 259.573061,74.4115296 C259.573061,71.637993 257.185713,70.5145352 251.463099,69.7070498 C240.930682,68.0920791 236.717715,65.0376781 236.717715,57.2436891 C236.717715,49.4497002 244.371271,44.7803284 252.516341,44.7803284 C261.39868,44.7803284 268.034103,48.0102698 269.017128,57.173473 L258.870899,57.173473 C258.274062,53.8733155 256.413335,52.363669 252.621665,52.363669 C248.829995,52.363669 246.969268,54.0488558 246.969268,56.4713118 C246.969268,58.8937678 248.865103,59.9821177 254.657932,60.8247111 C264.663729,62.2641414 270.175694,64.7919216 270.175694,73.3582879 C270.175694,81.9246541 263.92646,86.4887017 253.358934,86.4887017 C242.791409,86.4887017 236.331526,81.7491138 235.945337,73.1125315 L235.945337,73.1125315 Z M273.019447,66.1611359 L273.019447,65.5642989 C272.750328,60.01702 274.819115,54.6109861 278.722822,50.6605682 C282.626529,46.7101503 288.007574,44.5772095 293.557661,44.7803284 C303.87943,44.7803284 313.042633,50.8189144 313.042633,65.1078942 L313.042633,68.1622952 L284.35935,68.1622952 C284.640214,74.7977183 288.256344,78.6947127 294.259822,78.6947127 C299.385599,78.6947127 301.913379,76.4829051 302.61554,73.1125315 L313.147958,73.1125315 C311.848959,81.7491138 304.96778,86.5589178 294.049174,86.5589178 C281.796462,86.4887017 273.019447,78.9404692 273.019447,66.1611359 Z M302.26446,61.3513319 C301.913379,55.3127459 298.82387,52.5743173 293.557661,52.5743173 C288.630438,52.5510632 284.566958,56.4284294 284.35935,61.3513319 L302.26446,61.3513319 Z M315.956602,66.1611359 L315.956602,65.5642989 C315.68611,60.0043496 317.764258,54.5865976 321.683658,50.6338128 C325.603058,46.6810279 331.002989,44.5570029 336.565033,44.7803284 C345.83356,44.7803284 354.364818,48.8177551 355.382952,60.2980902 L344.850534,60.2980902 C344.708981,58.3072086 343.766298,56.4587824 342.237891,55.1751857 C340.709485,53.8915889 338.725964,53.2825102 336.740573,53.4871269 C331.017959,53.4871269 327.191181,57.77031 327.191181,65.4238667 L327.191181,66.0207037 C327.191181,74.060449 330.701987,78.1680919 336.986329,78.1680919 C339.146162,78.2922645 341.265494,77.5445638 342.869263,76.092592 C344.473032,74.6406202 345.427093,72.6058249 345.517587,70.444319 L355.523384,70.444319 C354.926547,79.9234948 348.045368,86.4887017 336.4246,86.4887017 C324.803833,86.4887017 315.956602,79.2213336 315.956602,66.1611359 L315.956602,66.1611359 Z M358.086272,74.5870699 C358.086272,65.2483264 366.61753,61.7375206 378.835135,61.7375206 L383.364074,61.7375206 L383.364074,60.1576579 C383.364074,55.4180701 381.889536,52.8200738 376.869083,52.8200738 C375.203854,52.6026799 373.52331,53.0885598 372.231009,54.1610364 C370.938708,55.233513 370.151391,56.7957039 370.05812,58.4724711 L359.525703,58.4724711 C360.227864,48.9932954 367.70588,44.7803284 377.46592,44.7803284 C387.225961,44.7803284 394.212464,48.747539 394.212464,59.595929 L394.212464,85.6461083 L383.43429,85.6461083 L383.43429,80.8363043 C380.682747,84.7132441 376.096748,86.8595985 371.357118,86.4887017 C364.335507,86.4887017 358.086272,82.9778959 358.086272,74.5870699 L358.086272,74.5870699 Z M383.364074,71.6731011 L383.364074,68.1622952 L379.151107,68.1622952 C372.726333,68.1622952 368.96977,69.5666176 368.96977,73.8146926 C368.96977,76.7286615 370.760281,78.6244966 374.797708,78.6244966 C379.747944,78.7649289 383.504507,76.0967164 383.504507,71.6731011 L383.364074,71.6731011 Z M402.006453,45.5527057 L413.065492,45.5527057 L413.065492,51.6615078 C415.522833,47.2384018 420.224273,44.5364249 425.283096,44.6398962 C430.148649,44.2506892 434.690883,47.1074403 436.447458,51.6615078 C439.443799,47.1865379 444.509264,44.5413862 449.893845,44.6398962 C457.301645,44.6398962 463.024259,49.3092679 463.024259,59.9119015 L463.024259,85.5056761 L452.035436,85.5056761 L452.035436,61.2811158 C452.035436,56.1553393 449.753413,53.8733155 445.751094,53.8733155 C443.596639,53.7795842 441.508289,54.6293368 440.031357,56.2006846 C438.554424,57.7720324 437.835544,59.9089686 438.062429,62.0534931 L438.062429,85.6461083 L427.038499,85.6461083 L427.038499,61.2811158 C427.038499,56.1553393 424.686259,53.8733155 420.789264,53.8733155 C418.628836,53.7690027 416.530728,54.6141283 415.045798,56.1868049 C413.560867,57.7594814 412.837454,59.9026026 413.065492,62.0534931 L413.065492,85.6461083 L402.006453,85.6461083 L402.006453,45.5527057 Z M470.607599,45.5527057 L481.701746,45.5527057 L481.701746,51.8370481 C484.390618,47.3658854 489.228568,44.63371 494.445971,44.6398857 C504.241119,44.6398857 512,51.9072642 512,65.1078942 L512,65.7398392 C512,78.9404692 504.521984,86.3482695 494.445971,86.3482695 C489.222025,86.5625787 484.311522,83.8570673 481.701746,79.3266578 L481.701746,99.2680349 L470.607599,99.2680349 L470.607599,45.5527057 Z M500.624989,65.8100553 L500.624989,65.1781103 C500.624989,57.1032569 496.657779,53.1360463 491.075597,53.1360463 C485.493416,53.1360463 481.315557,57.173473 481.315557,65.1781103 L481.315557,65.8100553 C481.315557,73.8146926 485.142335,77.7116871 491.180921,77.7116871 C497.219507,77.7116871 500.624989,73.6391523 500.624989,65.9504876 L500.624989,65.8100553 Z" fill="#1D2D35"/>
    <path d="M68.1288185,0 C91.1728655,0 109.189225,17.6054409 119.604488,42.2168654 L120.573354,44.5816535 C122.464794,49.3522376 124.077493,54.3647988 125.393668,59.5460874 L126.026963,62.1504531 C127.649415,69.1311149 128.739442,76.3900328 129.25489,83.753578 C129.338058,84.9416886 129.064906,86.1276002 128.470375,87.1596161 C118.789881,103.963492 97.2537057,112.077788 69.7872761,112.371805 L68.2262788,112.380101 C47.1873714,112.722693 27.044845,103.874519 13.0644399,88.1487036 C11.5947048,86.4954766 11.1565283,84.1664568 11.9249725,82.0921439 L12.8001791,79.852933 L13.5334362,78.0721929 C13.6633748,77.7626839 13.7971225,77.4471133 13.9345961,77.125928 C15.5082584,73.4493157 17.2529375,69.7690981 19.1340032,66.3058102 C24.1746517,57.025317 29.1626099,50.8732167 35.1084196,48.8376429 C36.3605907,48.4089566 37.6455933,48.1772272 38.9891301,48.168256 C44.2936735,48.168256 47.7203668,50.5474578 53.2150472,56.2641169 L56.3596183,59.5682067 L57.4460491,60.6497412 L58.1283697,61.2569179 L58.6496428,61.6848585 L58.8630867,61.4656959 C59.6121232,60.6679659 60.4863811,59.5680941 61.4459671,58.2125004 L61.9326861,57.5136083 C63.0772314,55.8441484 64.2972708,53.8879946 65.5650721,51.7073196 C67.2152779,48.8688917 68.8571977,45.8074825 70.4084511,42.743541 L71.5420121,40.4694802 L72.3986343,38.6937856 C73.8017849,35.7003977 77.3658836,34.4112556 80.3592715,35.8144062 C83.1863601,37.139604 84.4933035,40.3923141 83.4477502,43.2713295 L83.1622406,43.9371965 L81.9126785,46.5079778 L81.0893746,48.1512221 C79.4411319,51.406731 77.6937528,54.6647723 75.9148887,57.7244982 C74.5078012,60.1447517 73.1350391,62.3457739 71.8068411,64.2831138 C67.3630076,70.7649906 63.8932707,74.1833273 59.1060475,74.1833273 C55.5038532,74.1833273 53.5531365,73.4132563 50.1885597,70.2812176 L49.1337055,69.269155 L47.9756277,68.105823 L46.0047341,66.0563012 L44.7006794,64.6834872 L43.6398583,63.6031433 C43.4728726,63.4368641 43.3107244,63.2773642 43.1533068,63.1244785 L42.2647118,62.2852161 C41.986865,62.0310395 41.7270844,61.8020007 41.4845139,61.5967805 L40.8075768,61.0512564 C40.0760549,60.4950984 39.5448707,60.2145573 39.1773214,60.153071 L39.0473907,60.1411177 L38.9860849,60.1641099 C37.5621013,60.6516168 35.4298195,62.8778372 33.066127,66.3642165 L32.1094385,67.8248423 C31.6260537,68.5876251 31.1359559,69.398262 30.6429601,70.2529245 L29.6542351,72.019816 C28.3059145,74.5022505 27.0182866,77.1460252 25.8211132,79.8239138 L24.5140777,82.8409744 L24.947907,83.2714729 C36.068703,94.1314642 51.0018365,100.302705 66.6997166,100.415519 L68.1288185,100.409047 C91.0647825,100.409047 108.540432,94.5516507 116.600712,83.4847639 L117.160733,82.6829882 L117.09751,81.9283883 C116.278888,72.9733525 114.513089,64.2715165 111.942125,56.2209509 L111.146824,53.8257175 C102.955095,30.0767253 87.6447024,12.5474315 69.050006,11.9857449 L68.1288185,11.9718479 C42.2778796,11.9718479 24.8978046,29.5136579 13.2790755,59.6823901 L12.1725768,62.6411979 C11.9911276,63.1408472 11.8111545,63.6437402 11.6326461,64.1498561 C10.5330257,67.2675536 7.11421406,68.9035284 3.99651651,67.8039081 C0.878818953,66.7042877 -0.757155859,63.2854761 0.342464496,60.1677785 L0.885431679,58.6493339 L1.9991318,55.6606804 C15.209712,21.1714288 36.0636939,0 68.1288185,0 Z" fill="#1D2D35"/>
  </g>
</svg>

<svg width="512" height="113" xmlns="http://www.w3.org/2000/svg" preserveAspectRatio="xMidYMid"><g fill="#1D2D35"><path d="M150.211 31.053h21.487c11.901 0 18.08 4.88 18.08 14.043v.457a11.235 11.235 0 0 1-8.847 11.69c6.556.578 11.425 6.324 10.919 12.885v.316c0 10.006-6.566 15.272-19.17 15.272h-22.469V31.053Zm19.485 22.434c5.969 0 8.321-2.141 8.321-7.021v-.316c0-4.565-2.598-6.636-8.39-6.636h-7.338v14.043l7.407-.07Zm1.054 23.628c6.108 0 8.882-2.774 8.882-7.724v-.316c0-5.055-2.774-7.618-9.48-7.618h-7.863V77.15l8.46-.035Zm24.33-2.528c0-9.339 8.53-12.85 20.784-12.85h4.493v-1.58c0-4.739-1.44-7.337-6.495-7.337a6.039 6.039 0 0 0-6.74 5.652h-10.533c.702-9.479 8.18-13.692 17.976-13.692 9.795 0 16.711 3.968 16.711 14.816v26.05h-10.778v-4.81a13.517 13.517 0 0 1-12.077 5.653c-7.233 0-13.341-3.511-13.341-11.902Zm25.277-2.914v-3.51h-4.283c-6.425 0-10.146 1.404-10.146 5.652 0 2.914 1.755 4.81 5.793 4.81 4.88.14 8.636-2.528 8.636-6.952Zm15.588 1.44h10.322c.457 3.51 2.212 5.652 7.022 5.652 4.283 0 6.284-1.58 6.284-4.353 0-2.774-2.387-3.897-8.11-4.705-10.532-1.615-14.745-4.67-14.745-12.463 0-7.794 7.653-12.464 15.798-12.464 8.883 0 15.518 3.23 16.501 12.393h-10.146c-.597-3.3-2.458-4.81-6.25-4.81-3.791 0-5.652 1.686-5.652 4.108 0 2.423 1.896 3.511 7.689 4.354 10.006 1.44 15.518 3.967 15.518 12.533 0 8.567-6.25 13.13-16.817 13.13-10.568 0-17.027-4.739-17.414-13.375Zm37.074-6.952v-.597a19.836 19.836 0 0 1 20.539-20.784c10.321 0 19.485 6.039 19.485 20.328v3.054h-28.684c.281 6.636 3.897 10.533 9.9 10.533 5.127 0 7.654-2.212 8.357-5.582h10.532c-1.299 8.636-8.18 13.446-19.099 13.446-12.253-.07-21.03-7.619-21.03-20.398Zm29.245-4.81c-.35-6.038-3.44-8.777-8.706-8.777a9.163 9.163 0 0 0-9.199 8.777h17.905Zm13.693 4.81v-.597a19.836 19.836 0 0 1 20.608-20.784c9.269 0 17.8 4.038 18.818 15.518h-10.532a7.373 7.373 0 0 0-8.11-6.81c-5.723 0-9.55 4.282-9.55 11.936v.597c0 8.04 3.511 12.147 9.795 12.147a8.075 8.075 0 0 0 8.532-7.724h10.005c-.596 9.48-7.478 16.045-19.098 16.045-11.621 0-20.468-7.268-20.468-20.328Zm42.13 8.426c0-9.339 8.53-12.85 20.748-12.85h4.53v-1.58c0-4.739-1.475-7.337-6.496-7.337a6.039 6.039 0 0 0-6.81 5.652h-10.533c.702-9.479 8.18-13.692 17.94-13.692 9.76 0 16.746 3.968 16.746 14.816v26.05h-10.778v-4.81a13.517 13.517 0 0 1-12.077 5.653c-7.021 0-13.27-3.511-13.27-11.902Zm25.277-2.914v-3.51h-4.213c-6.425 0-10.181 1.404-10.181 5.652 0 2.914 1.79 4.81 5.828 4.81 4.95.14 8.707-2.528 8.707-6.952h-.14Zm18.642-26.12h11.06v6.109a13.657 13.657 0 0 1 12.217-7.022 11.024 11.024 0 0 1 11.164 7.022 15.834 15.834 0 0 1 13.447-7.022c7.408 0 13.13 4.67 13.13 15.272v25.594h-10.989V61.28c0-5.126-2.282-7.408-6.284-7.408a7.408 7.408 0 0 0-7.689 8.18v23.593h-11.024V61.281c0-5.126-2.352-7.408-6.249-7.408a7.408 7.408 0 0 0-7.724 8.18v23.593h-11.059V45.553Zm68.602 0h11.094v6.284a14.85 14.85 0 0 1 12.744-7.197c9.795 0 17.554 7.267 17.554 20.468v.632c0 13.2-7.478 20.608-17.554 20.608a14.043 14.043 0 0 1-12.744-7.021v19.941h-11.094V45.553Zm30.017 20.257v-.632c0-8.075-3.967-12.042-9.55-12.042-5.582 0-9.76 4.037-9.76 12.042v.632c0 8.005 3.827 11.902 9.866 11.902s9.444-4.073 9.444-11.762v-.14ZM68.129 0c23.044 0 41.06 17.605 51.475 42.217l.97 2.365a122.448 122.448 0 0 1 4.82 14.964l.633 2.604a138.33 138.33 0 0 1 3.228 21.604 5.986 5.986 0 0 1-.785 3.406c-9.68 16.803-31.216 24.918-58.683 25.212l-1.56.008A72.235 72.235 0 0 1 13.063 88.15a5.986 5.986 0 0 1-1.139-6.057l.875-2.24.733-1.78c.13-.31.264-.625.402-.946 1.573-3.677 3.318-7.357 5.199-10.82 5.04-9.28 10.029-15.433 15.974-17.468a12.126 12.126 0 0 1 3.881-.67c5.305 0 8.731 2.38 14.226 8.096l3.145 3.304 1.086 1.082.682.607.522.428.213-.22c.75-.797 1.623-1.897 2.583-3.252l.487-.7c1.144-1.669 2.364-3.625 3.632-5.806a178.14 178.14 0 0 0 4.843-8.963l1.134-2.275.857-1.775a5.986 5.986 0 0 1 11.049 4.577l-.286.666-1.25 2.571-.823 1.643a189.804 189.804 0 0 1-5.174 9.573c-1.407 2.42-2.78 4.622-4.108 6.56-4.444 6.481-7.914 9.9-12.701 9.9-3.602 0-5.553-.77-8.917-3.903l-1.055-1.012-1.158-1.163-1.971-2.05-1.304-1.373-1.061-1.08c-.167-.166-.33-.326-.487-.479l-.888-.839a26.949 26.949 0 0 0-.78-.688l-.677-.546c-.732-.556-1.263-.836-1.63-.898l-.13-.012-.062.023c-1.424.488-3.556 2.714-5.92 6.2l-.957 1.46a68.265 68.265 0 0 0-1.466 2.429l-.989 1.767a113.625 113.625 0 0 0-3.833 7.804l-1.307 3.017.434.43c11.12 10.86 26.054 17.032 41.752 17.145l1.429-.007c22.936 0 40.411-5.857 48.472-16.924l.56-.802-.063-.755c-.82-8.955-2.585-17.656-5.156-25.707l-.795-2.395c-8.192-23.75-23.502-41.279-42.097-41.84l-.921-.014c-25.851 0-43.231 17.542-54.85 47.71l-1.106 2.96c-.182.499-.362 1.002-.54 1.508a5.986 5.986 0 0 1-11.29-3.982l.542-1.519L2 55.661C15.21 21.17 36.064 0 68.13 0Z"/></g></svg>
